flags/1x1/je.svg

<svg xmlns="http://www.w3.org/2000/svg" xmlns:xlink="http://www.w3.org/1999/xlink" id="flag-icon-css-je" viewBox="0 0 512 512">
  <defs>
    <clipPath id="je-a">
      <path fill-opacity=".7" d="M6.2 0h18v18h-18z"/>
    </clipPath>
  </defs>
  <g clip-path="url(#je-a)" transform="matrix(28.444445, 0, 0, 28.444445, -176.355545, 0)">
    <path fill="#fff" d="M0 0h30v18H0z"/>
    <path fill="#df112d" fill-rule="evenodd" d="M0 0v1.2L13 9 0 16.8V18h2l13-7.8L28 18h2v-1.2L17 9l13-7.8V0h-2L15 7.8 2 0H0z"/>
    <g transform="translate(.4) scale(.12217)">
      <path fill="#e8112d" stroke="#000" stroke-width=".1" d="M132.7 22.2c3.1 12.8 1.4 28.6-12.9 37.4-14.2-8.8-16-24.6-12.8-37.4 3.4-3 18.6-4.9 25.7 0z"/>
      <path fill="#f9dd16" stroke="#000" stroke-width=".1" d="M 119.901 19.599 C 124.43 19.482 128.811 20.652 132.8 22.8 C 133.457 18.437 135.136 14.291 137.7 10.7 C 135.2 10.7 134.1 12 134.1 13.3 C 133.5 11.6 131.1 11.7 130.3 12.6 C 133 14.4 130.9 17.6 128.5 17 C 127.4 16.7 126.8 15.9 126.5 14.7 C 127.482 14.508 127.888 13.324 127.23 12.57 C 126.572 11.816 125.345 12.056 125.02 13.003 C 124.765 13.749 125.226 14.548 126 14.7 C 125.349 15.749 124.105 16.271 122.9 16 C 121.6 15.7 121 14.5 121 13.5 C 121 10.8 123.6 10.4 124.4 10.9 C 124.4 9.1 121.5 7.6 120.6 9.1 C 121.68 7.209 121.351 4.828 119.8 3.3 C 118.297 4.812 117.972 7.133 119 9 C 118.1 7.5 115.3 9 115.3 10.8 C 116 10.3 118.6 10.7 118.6 13.4 C 118.6 14.4 118 15.6 116.8 15.9 C 115.566 16.186 114.285 15.665 113.6 14.6 C 113.834 14.526 114.042 14.387 114.2 14.2 C 114.886 13.471 114.526 12.273 113.552 12.044 C 112.577 11.814 111.72 12.725 112.008 13.683 C 112.157 14.179 112.586 14.539 113.1 14.6 C 112.9 15.8 112.2 16.6 111.1 16.9 C 109.31 17.357 107.697 15.704 108.196 13.925 C 108.365 13.325 108.761 12.814 109.3 12.5 C 108.5 11.5 106.1 11.5 105.5 13.2 C 105.5 11.9 104.4 10.6 101.9 10.6 C 104.499 14.182 106.213 18.328 106.9 22.7 C 110.889 20.552 115.371 19.483 119.9 19.6 L 119.901 19.599 Z"/>
      <g id="b" stroke="#000">
        <g fill="#f9dd16" stroke-width=".1">
          <path d="M130.7 32.2c-.4 0-.4.5-.5.5.8 0 1.2-.3 1.4-.7v.6c.6-.2.8-.7.6-1l.7.2c-.4-.3-.1-1-.8-1.4.2 0 .6.2.8.5-.1-.7-.2-1.1-.8-1.5h.5a.9.9 0 01-.4-.8c0-.4-.2-.4-.6-.3l-1.8.1c-1 0-2 0-2.8-.6 1.3.6 3-.6 3-1.5 0-1-1.4-2-4-1.4-2.6.6-5.8.4-5.8-.5s2.3-1 3.5-.8c1.2.2 2 .3 4.2-.5-.5.2-2.3.3-3.7-.1s-4.8-.4-4.8 1.4c0 1.9 3.6 1.7 6.8 1.2 1.8-.2 2.8 0 2.8.5 0 .6-1.7.8-3 .7a10 10 0 00-4.1.3c-1.3.4-2.2 0-3.6.3-.7 0-2.4 0-3.2-1.4-.5.4-2 1.1-2.3 1.9-.3.6 0 1.3.4 2 .6.8-.3.7-1 .7-.8 0-2 0-2.6-.8-.6-.6-1.3-1.1-1.9-.7-.3.3 0 .6.2.5l.8.2a1 1 0 00-1 .1c-.3.2 0 .6.3.5.2-.1.7-.2 1 0-.3 0-.7 0-.8.2s0 .4.3.4c.6 0 .7.4 1.3.3a.9.9 0 00-.7.4c.6-.3 1.1.4 1.8.2-.2.1-.7.4-.7.6.4-.5 3.2.4 3.2-.7l-.1.8c.3-.2 1.4-.3 1.8-1 0 .2 0 .5-.2.6.3 0 .8-.2 1.3-.9.2-.3.2-.5.2-.7.5 0 .8-.1 1.2-.4.4-.3.8.3 1.5-.2.6-.4 1.2 0 1.6-.2.3-.2.8 0 1.2-.2s1 .1 1.6-.4c1 .4 2.3 1 5.2.5 1.6-.3 2.2.3 2.2 1 0 .6-.4.6-.6.6-1 .1-1.3-.3-1.7-.2-.2.1-.4.5 0 .7-.3.1-.3.4-.1.5s.5 0 .8-.1c-.4.1-.7.4-.5.7.1.2.4.3.7 0 .3-.4.8-.7 1.2-.7zm-18.6-8c-.8-.3-1-.3-.9.4 0 .3.3.7.5.9 0-.3.1-1 .4-1.2z"/>
          <path d="M114.8 24.3c.8-.4 1.1-.4.9.3 0 .3-.3.7-.5.9 0-.3 0-1-.4-1.2z"/>
          <path d="M113.5 23.8c1.6 0 1.8.8 1.7 1.7 0 1-.5.6-.8 2-.1.4-.5.5-1 .5-.3 0-.7 0-.9-.6-.3-1.3-.8-1-.8-2 0-.8.2-1.6 1.8-1.6z"/>
          <path d="M109.4 27.5c-.4-.2-.7 0-.9 0 .6.1.6.8 1.8 1-.3 0-.4.2-.7 0 .5.4 1 .9 2.2.9.7 0 .2.3-.2.1.4.5 1.3.1 1.9 1 0-.7-1-1.7-.5-2.4-1.7-.1-1.8-1-2.7-1.7-.8-.6-.9-1.2-1.2-2.3-.1-.5-.7-.8-1-.7-.3 0-.5.3-.2.5.2.2.6.2.6.7-.3-.4-.8-.5-1-.3-.1.2 0 .5.2.5.5 0 .2.6.7 1-.5-.5-.9-.6-1.2-.3-.1.2 0 .5.4.5.5 0 1 1.2 1.8 1.5zm13 4.6c-.2 0-.1.5-.5.5.8 0 1.3-.2 1.6-.5l-.2.5c.4-.3 1.5-.4 2-.3s.6-.1.8-.4c.2-.4 0-.6-.3-.8-.3-.3-.4-.7-.3-1.3-1.4-2-4-1-4-.2.9 1.1 1 1 1.8 1.1.7.2 1.2.2.7.6-.2.2-1 0-1.5.1-1.3 0-2-.9-2.3-.4-.3.4 0 .6.6.6-.4 0-1 0-.9.4.2.7.8-.1 1.1.1-.2 0-.6.1-.6.3 0 .2.5.5 1 0a1.6 1.6 0 011-.3z"/>
        </g>
        <path fill="none" stroke-width=".1" d="M123.5 29.2c-.4-.2-.9-.3-1.4-.2m-5.6 0c-.4.8-.2 1.2-.1 1.6m-4-5.6c.2.2.4-.2.8.2-.1-.1-.3.3-.6 0m2-.1c-.3 0-.5-.3-.9.1.1-.1.3.3.6 0m-.6 0v.3c.1.7.3 1-.3 1-.5 0-.3-.3-.2-1v-.3"/>
        <path fill="#ff0016" stroke-width=".1" d="M113.5 27.7c.4 0 .6 0 .6-.6 0-.2.3-.3.1-.7.2.4-.7.4-.7.2 0 .2-1 .2-.8-.2-.1.4.2.5.1.7 0 .6.2.6.7.6z"/>
        <path stroke-width=".1" d="M113 26.5l-1-.3m1 .3h-1m1 .1l-.9.3m1.7-.4l1-.3m-1 .3h1.2m-1.2.1l1 .3"/>
        <path fill="#0051ba" stroke-width="0" d="M108.1 23.4c-.3-.4-1 0-1 .4.2-.3.6.1.9 0 .1 0 .3-.2.1-.4zm-.3.9c-.3-.4-1.1 0-1.1.4.2-.3.6.1.9 0 .1 0 .3-.3.2-.4zm-.2 1.2c-.4-.4-1.1 0-1 .5.2-.3.6 0 .8 0 .2-.1.3-.4.1-.5zm.3 3.7c-.4-.4-1 .1-1 .6.2-.4.7 0 1-.2 0 0 .2-.3 0-.5zm0 .7c-.5-.1-1 .6-.7 1 0-.5.6-.3.8-.5l-.1-.5zm.6.7c-.5-.2-1 .4-.7.8 0-.3.6-.2.7-.4v-.5zm11.7 1.1c-.5-.1-1 .5-.7 1 0-.5.6-.3.8-.5l-.1-.5zm.6.6c-.5-.1-.9.6-.6 1 0-.5.6-.4.7-.6.1-.1.1-.4 0-.4zm-.4-1.4c-.4-.2-1 .4-.9.8.2-.4.7-.1.9-.3V31zm8.3 1c-.4-.1-.8.6-.6 1 0-.4.6-.3.8-.5 0-.2 0-.5-.2-.5zm0-.7c-.4-.3-1 .3-.8.7.2-.3.7-.1.9-.3v-.5zm.4 1.3c-.5 0-.9.7-.6 1 0-.4.6-.3.7-.5.1-.2 0-.4-.1-.5zm-15.6-5.2c.3 0 .4.1.4.7 0 1 0 1.6-.4 1.6-.3 0-.3-.5-.3-1.3 0-.4 0-.7-.1-.6 0-.3.1-.4.4-.4z"/>
      </g>
      <g stroke="#000" transform="matrix(0.9000000357627869, 0, 0, 0.9000000357627869, 11.600000381469727, 13.699999809265137)">
        <g fill="#f9dd16" stroke-width=".1">
          <path d="M130.7 32.2c-.4 0-.4.5-.5.5.8 0 1.2-.3 1.4-.7v.6c.6-.2.8-.7.6-1l.7.2c-.4-.3-.1-1-.8-1.4.2 0 .6.2.8.5-.1-.7-.2-1.1-.8-1.5h.5a.9.9 0 01-.4-.8c0-.4-.2-.4-.6-.3l-1.8.1c-1 0-2 0-2.8-.6 1.3.6 3-.6 3-1.5 0-1-1.4-2-4-1.4-2.6.6-5.8.4-5.8-.5s2.3-1 3.5-.8c1.2.2 2 .3 4.2-.5-.5.2-2.3.3-3.7-.1s-4.8-.4-4.8 1.4c0 1.9 3.6 1.7 6.8 1.2 1.8-.2 2.8 0 2.8.5 0 .6-1.7.8-3 .7a10 10 0 00-4.1.3c-1.3.4-2.2 0-3.6.3-.7 0-2.4 0-3.2-1.4-.5.4-2 1.1-2.3 1.9-.3.6 0 1.3.4 2 .6.8-.3.7-1 .7-.8 0-2 0-2.6-.8-.6-.6-1.3-1.1-1.9-.7-.3.3 0 .6.2.5l.8.2a1 1 0 00-1 .1c-.3.2 0 .6.3.5.2-.1.7-.2 1 0-.3 0-.7 0-.8.2s0 .4.3.4c.6 0 .7.4 1.3.3a.9.9 0 00-.7.4c.6-.3 1.1.4 1.8.2-.2.1-.7.4-.7.6.4-.5 3.2.4 3.2-.7l-.1.8c.3-.2 1.4-.3 1.8-1 0 .2 0 .5-.2.6.3 0 .8-.2 1.3-.9.2-.3.2-.5.2-.7.5 0 .8-.1 1.2-.4.4-.3.8.3 1.5-.2.6-.4 1.2 0 1.6-.2.3-.2.8 0 1.2-.2s1 .1 1.6-.4c1 .4 2.3 1 5.2.5 1.6-.3 2.2.3 2.2 1 0 .6-.4.6-.6.6-1 .1-1.3-.3-1.7-.2-.2.1-.4.5 0 .7-.3.1-.3.4-.1.5s.5 0 .8-.1c-.4.1-.7.4-.5.7.1.2.4.3.7 0 .3-.4.8-.7 1.2-.7zm-18.6-8c-.8-.3-1-.3-.9.4 0 .3.3.7.5.9 0-.3.1-1 .4-1.2z"/>
          <path d="M114.8 24.3c.8-.4 1.1-.4.9.3 0 .3-.3.7-.5.9 0-.3 0-1-.4-1.2z"/>
          <path d="M113.5 23.8c1.6 0 1.8.8 1.7 1.7 0 1-.5.6-.8 2-.1.4-.5.5-1 .5-.3 0-.7 0-.9-.6-.3-1.3-.8-1-.8-2 0-.8.2-1.6 1.8-1.6z"/>
          <path d="M109.4 27.5c-.4-.2-.7 0-.9 0 .6.1.6.8 1.8 1-.3 0-.4.2-.7 0 .5.4 1 .9 2.2.9.7 0 .2.3-.2.1.4.5 1.3.1 1.9 1 0-.7-1-1.7-.5-2.4-1.7-.1-1.8-1-2.7-1.7-.8-.6-.9-1.2-1.2-2.3-.1-.5-.7-.8-1-.7-.3 0-.5.3-.2.5.2.2.6.2.6.7-.3-.4-.8-.5-1-.3-.1.2 0 .5.2.5.5 0 .2.6.7 1-.5-.5-.9-.6-1.2-.3-.1.2 0 .5.4.5.5 0 1 1.2 1.8 1.5zm13 4.6c-.2 0-.1.5-.5.5.8 0 1.3-.2 1.6-.5l-.2.5c.4-.3 1.5-.4 2-.3s.6-.1.8-.4c.2-.4 0-.6-.3-.8-.3-.3-.4-.7-.3-1.3-1.4-2-4-1-4-.2.9 1.1 1 1 1.8 1.1.7.2 1.2.2.7.6-.2.2-1 0-1.5.1-1.3 0-2-.9-2.3-.4-.3.4 0 .6.6.6-.4 0-1 0-.9.4.2.7.8-.1 1.1.1-.2 0-.6.1-.6.3 0 .2.5.5 1 0a1.6 1.6 0 011-.3z"/>
        </g>
        <path fill="none" stroke-width=".1" d="M123.5 29.2c-.4-.2-.9-.3-1.4-.2m-5.6 0c-.4.8-.2 1.2-.1 1.6m-4-5.6c.2.2.4-.2.8.2-.1-.1-.3.3-.6 0m2-.1c-.3 0-.5-.3-.9.1.1-.1.3.3.6 0m-.6 0v.3c.1.7.3 1-.3 1-.5 0-.3-.3-.2-1v-.3"/>
        <path fill="#ff0016" stroke-width=".1" d="M113.5 27.7c.4 0 .6 0 .6-.6 0-.2.3-.3.1-.7.2.4-.7.4-.7.2 0 .2-1 .2-.8-.2-.1.4.2.5.1.7 0 .6.2.6.7.6z"/>
        <path stroke-width=".1" d="M113 26.5l-1-.3m1 .3h-1m1 .1l-.9.3m1.7-.4l1-.3m-1 .3h1.2m-1.2.1l1 .3"/>
        <path fill="#0051ba" stroke-width="0" d="M108.1 23.4c-.3-.4-1 0-1 .4.2-.3.6.1.9 0 .1 0 .3-.2.1-.4zm-.3.9c-.3-.4-1.1 0-1.1.4.2-.3.6.1.9 0 .1 0 .3-.3.2-.4zm-.2 1.2c-.4-.4-1.1 0-1 .5.2-.3.6 0 .8 0 .2-.1.3-.4.1-.5zm.3 3.7c-.4-.4-1 .1-1 .6.2-.4.7 0 1-.2 0 0 .2-.3 0-.5zm0 .7c-.5-.1-1 .6-.7 1 0-.5.6-.3.8-.5l-.1-.5zm.6.7c-.5-.2-1 .4-.7.8 0-.3.6-.2.7-.4v-.5zm11.7 1.1c-.5-.1-1 .5-.7 1 0-.5.6-.3.8-.5l-.1-.5zm.6.6c-.5-.1-.9.6-.6 1 0-.5.6-.4.7-.6.1-.1.1-.4 0-.4zm-.4-1.4c-.4-.2-1 .4-.9.8.2-.4.7-.1.9-.3V31zm8.3 1c-.4-.1-.8.6-.6 1 0-.4.6-.3.8-.5 0-.2 0-.5-.2-.5zm0-.7c-.4-.3-1 .3-.8.7.2-.3.7-.1.9-.3v-.5zm.4 1.3c-.5 0-.9.7-.6 1 0-.4.6-.3.7-.5.1-.2 0-.4-.1-.5zm-15.6-5.2c.3 0 .4.1.4.7 0 1 0 1.6-.4 1.6-.3 0-.3-.5-.3-1.3 0-.4 0-.7-.1-.6 0-.3.1-.4.4-.4z"/>
      </g>
      <g stroke="#000" transform="matrix(0.6700000166893005, 0, 0, 0.75, 39.20000076293945, 27.5)">
        <g fill="#f9dd16" stroke-width=".1">
          <path d="M130.7 32.2c-.4 0-.4.5-.5.5.8 0 1.2-.3 1.4-.7v.6c.6-.2.8-.7.6-1l.7.2c-.4-.3-.1-1-.8-1.4.2 0 .6.2.8.5-.1-.7-.2-1.1-.8-1.5h.5a.9.9 0 01-.4-.8c0-.4-.2-.4-.6-.3l-1.8.1c-1 0-2 0-2.8-.6 1.3.6 3-.6 3-1.5 0-1-1.4-2-4-1.4-2.6.6-5.8.4-5.8-.5s2.3-1 3.5-.8c1.2.2 2 .3 4.2-.5-.5.2-2.3.3-3.7-.1s-4.8-.4-4.8 1.4c0 1.9 3.6 1.7 6.8 1.2 1.8-.2 2.8 0 2.8.5 0 .6-1.7.8-3 .7a10 10 0 00-4.1.3c-1.3.4-2.2 0-3.6.3-.7 0-2.4 0-3.2-1.4-.5.4-2 1.1-2.3 1.9-.3.6 0 1.3.4 2 .6.8-.3.7-1 .7-.8 0-2 0-2.6-.8-.6-.6-1.3-1.1-1.9-.7-.3.3 0 .6.2.5l.8.2a1 1 0 00-1 .1c-.3.2 0 .6.3.5.2-.1.7-.2 1 0-.3 0-.7 0-.8.2s0 .4.3.4c.6 0 .7.4 1.3.3a.9.9 0 00-.7.4c.6-.3 1.1.4 1.8.2-.2.1-.7.4-.7.6.4-.5 3.2.4 3.2-.7l-.1.8c.3-.2 1.4-.3 1.8-1 0 .2 0 .5-.2.6.3 0 .8-.2 1.3-.9.2-.3.2-.5.2-.7.5 0 .8-.1 1.2-.4.4-.3.8.3 1.5-.2.6-.4 1.2 0 1.6-.2.3-.2.8 0 1.2-.2s1 .1 1.6-.4c1 .4 2.3 1 5.2.5 1.6-.3 2.2.3 2.2 1 0 .6-.4.6-.6.6-1 .1-1.3-.3-1.7-.2-.2.1-.4.5 0 .7-.3.1-.3.4-.1.5s.5 0 .8-.1c-.4.1-.7.4-.5.7.1.2.4.3.7 0 .3-.4.8-.7 1.2-.7zm-18.6-8c-.8-.3-1-.3-.9.4 0 .3.3.7.5.9 0-.3.1-1 .4-1.2z"/>
          <path d="M114.8 24.3c.8-.4 1.1-.4.9.3 0 .3-.3.7-.5.9 0-.3 0-1-.4-1.2z"/>
          <path d="M113.5 23.8c1.6 0 1.8.8 1.7 1.7 0 1-.5.6-.8 2-.1.4-.5.5-1 .5-.3 0-.7 0-.9-.6-.3-1.3-.8-1-.8-2 0-.8.2-1.6 1.8-1.6z"/>
          <path d="M109.4 27.5c-.4-.2-.7 0-.9 0 .6.1.6.8 1.8 1-.3 0-.4.2-.7 0 .5.4 1 .9 2.2.9.7 0 .2.3-.2.1.4.5 1.3.1 1.9 1 0-.7-1-1.7-.5-2.4-1.7-.1-1.8-1-2.7-1.7-.8-.6-.9-1.2-1.2-2.3-.1-.5-.7-.8-1-.7-.3 0-.5.3-.2.5.2.2.6.2.6.7-.3-.4-.8-.5-1-.3-.1.2 0 .5.2.5.5 0 .2.6.7 1-.5-.5-.9-.6-1.2-.3-.1.2 0 .5.4.5.5 0 1 1.2 1.8 1.5zm13 4.6c-.2 0-.1.5-.5.5.8 0 1.3-.2 1.6-.5l-.2.5c.4-.3 1.5-.4 2-.3s.6-.1.8-.4c.2-.4 0-.6-.3-.8-.3-.3-.4-.7-.3-1.3-1.4-2-4-1-4-.2.9 1.1 1 1 1.8 1.1.7.2 1.2.2.7.6-.2.2-1 0-1.5.1-1.3 0-2-.9-2.3-.4-.3.4 0 .6.6.6-.4 0-1 0-.9.4.2.7.8-.1 1.1.1-.2 0-.6.1-.6.3 0 .2.5.5 1 0a1.6 1.6 0 011-.3z"/>
        </g>
        <path fill="none" stroke-width=".1" d="M123.5 29.2c-.4-.2-.9-.3-1.4-.2m-5.6 0c-.4.8-.2 1.2-.1 1.6m-4-5.6c.2.2.4-.2.8.2-.1-.1-.3.3-.6 0m2-.1c-.3 0-.5-.3-.9.1.1-.1.3.3.6 0m-.6 0v.3c.1.7.3 1-.3 1-.5 0-.3-.3-.2-1v-.3"/>
        <path fill="#ff0016" stroke-width=".1" d="M113.5 27.7c.4 0 .6 0 .6-.6 0-.2.3-.3.1-.7.2.4-.7.4-.7.2 0 .2-1 .2-.8-.2-.1.4.2.5.1.7 0 .6.2.6.7.6z"/>
        <path stroke-width=".1" d="M113 26.5l-1-.3m1 .3h-1m1 .1l-.9.3m1.7-.4l1-.3m-1 .3h1.2m-1.2.1l1 .3"/>
        <path fill="#0051ba" stroke-width="0" d="M108.1 23.4c-.3-.4-1 0-1 .4.2-.3.6.1.9 0 .1 0 .3-.2.1-.4zm-.3.9c-.3-.4-1.1 0-1.1.4.2-.3.6.1.9 0 .1 0 .3-.3.2-.4zm-.2 1.2c-.4-.4-1.1 0-1 .5.2-.3.6 0 .8 0 .2-.1.3-.4.1-.5zm.3 3.7c-.4-.4-1 .1-1 .6.2-.4.7 0 1-.2 0 0 .2-.3 0-.5zm0 .7c-.5-.1-1 .6-.7 1 0-.5.6-.3.8-.5l-.1-.5zm.6.7c-.5-.2-1 .4-.7.8 0-.3.6-.2.7-.4v-.5zm11.7 1.1c-.5-.1-1 .5-.7 1 0-.5.6-.3.8-.5l-.1-.5zm.6.6c-.5-.1-.9.6-.6 1 0-.5.6-.4.7-.6.1-.1.1-.4 0-.4zm-.4-1.4c-.4-.2-1 .4-.9.8.2-.4.7-.1.9-.3V31zm8.3 1c-.4-.1-.8.6-.6 1 0-.4.6-.3.8-.5 0-.2 0-.5-.2-.5zm0-.7c-.4-.3-1 .3-.8.7.2-.3.7-.1.9-.3v-.5zm.4 1.3c-.5 0-.9.7-.6 1 0-.4.6-.3.7-.5.1-.2 0-.4-.1-.5zm-15.6-5.2c.3 0 .4.1.4.7 0 1 0 1.6-.4 1.6-.3 0-.3-.5-.3-1.3 0-.4 0-.7-.1-.6 0-.3.1-.4.4-.4z"/>
      </g>
    </g>
  </g>
</svg>

<svg xmlns="http://www.w3.org/2000/svg" xmlns:xlink="http://www.w3.org/1999/xlink" id="flag-icon-css-je" viewBox="0 0 30 30">
  <defs>
    <clipPath id="je-a">
      <path fill-opacity=".7" d="M6.2 0h18v18h-18z"/>
    </clipPath>
  </defs>
  <g clip-path="url(#je-a)" transform="translate(-10.33354 0) scale(1.6667)">
    <path fill="#fff" d="M0 0h30v18H0z"/>
    <path fill="#df112d" fill-rule="evenodd" d="M0 0v1.2L13 9 0 16.8V18h2l13-7.8L28 18h2v-1.2L17 9l13-7.8V0h-2L15 7.8 2 0H0z"/>
    <g transform="translate(.4) scale(.12217)">
      <path fill="#e8112d" stroke="#000" stroke-width=".1" d="M132.7 22.2c3.1 12.8 1.4 28.6-12.9 37.4-14.2-8.8-16-24.6-12.8-37.4 3.4-3 18.6-4.9 25.7 0z"/>
      <path fill="#f9dd16" stroke="#000" stroke-width=".1" d="M119.8 19.7a26 26 0 0113 3.1 28 28 0 014.9-12.1c-2.5 0-3.6 1.3-3.6 2.6-.6-1.7-3-1.6-3.8-.7 2.7 1.8.6 5-1.8 4.4-1.1-.3-1.7-1.1-2-2.3a1.3 1.3 0 10-.5 0 2.9 2.9 0 01-3.1 1.3c-1.3-.3-1.9-1.5-1.9-2.5 0-2.7 2.6-3.1 3.4-2.6 0-1.8-2.9-3.3-3.8-1.8a4.8 4.8 0 00-.8-5.8A4.8 4.8 0 00119 9c-.9-1.5-3.7 0-3.7 1.8.7-.5 3.3-.1 3.3 2.6 0 1-.6 2.2-1.8 2.5a3 3 0 01-3.2-1.3 1.3 1.3 0 00.6-.4 1.3 1.3 0 10-1.1.4c-.2 1.2-.9 2-2 2.3a2.4 2.4 0 01-1.8-4.4c-.8-1-3.2-1-3.8.7 0-1.3-1.1-2.6-3.6-2.6a28 28 0 015 12.1 26 26 0 0113-3.1z"/>
      <g id="b" stroke="#000">
        <g fill="#f9dd16" stroke-width=".1">
          <path d="M130.7 32.2c-.4 0-.4.5-.5.5.8 0 1.2-.3 1.4-.7v.6c.6-.2.8-.7.6-1l.7.2c-.4-.3-.1-1-.8-1.4.2 0 .6.2.8.5-.1-.7-.2-1.1-.8-1.5h.5a.9.9 0 01-.4-.8c0-.4-.2-.4-.6-.3l-1.8.1c-1 0-2 0-2.8-.6 1.3.6 3-.6 3-1.5 0-1-1.4-2-4-1.4-2.6.6-5.8.4-5.8-.5s2.3-1 3.5-.8c1.2.2 2 .3 4.2-.5-.5.2-2.3.3-3.7-.1s-4.8-.4-4.8 1.4c0 1.9 3.6 1.7 6.8 1.2 1.8-.2 2.8 0 2.8.5 0 .6-1.7.8-3 .7a10 10 0 00-4.1.3c-1.3.4-2.2 0-3.6.3-.7 0-2.4 0-3.2-1.4-.5.4-2 1.1-2.3 1.9-.3.6 0 1.3.4 2 .6.8-.3.7-1 .7-.8 0-2 0-2.6-.8-.6-.6-1.3-1.1-1.9-.7-.3.3 0 .6.2.5l.8.2a1 1 0 00-1 .1c-.3.2 0 .6.3.5.2-.1.7-.2 1 0-.3 0-.7 0-.8.2s0 .4.3.4c.6 0 .7.4 1.3.3a.9.9 0 00-.7.4c.6-.3 1.1.4 1.8.2-.2.1-.7.4-.7.6.4-.5 3.2.4 3.2-.7l-.1.8c.3-.2 1.4-.3 1.8-1 0 .2 0 .5-.2.6.3 0 .8-.2 1.3-.9.2-.3.2-.5.2-.7.5 0 .8-.1 1.2-.4.4-.3.8.3 1.5-.2.6-.4 1.2 0 1.6-.2.3-.2.8 0 1.2-.2s1 .1 1.6-.4c1 .4 2.3 1 5.2.5 1.6-.3 2.2.3 2.2 1 0 .6-.4.6-.6.6-1 .1-1.3-.3-1.7-.2-.2.1-.4.5 0 .7-.3.1-.3.4-.1.5s.5 0 .8-.1c-.4.1-.7.4-.5.7.1.2.4.3.7 0 .3-.4.8-.7 1.2-.7zm-18.6-8c-.8-.3-1-.3-.9.4 0 .3.3.7.5.9 0-.3.1-1 .4-1.2z"/>
          <path d="M114.8 24.3c.8-.4 1.1-.4.9.3 0 .3-.3.7-.5.9 0-.3 0-1-.4-1.2z"/>
          <path d="M113.5 23.8c1.6 0 1.8.8 1.7 1.7 0 1-.5.6-.8 2-.1.4-.5.5-1 .5-.3 0-.7 0-.9-.6-.3-1.3-.8-1-.8-2 0-.8.2-1.6 1.8-1.6z"/>
          <path d="M109.4 27.5c-.4-.2-.7 0-.9 0 .6.1.6.8 1.8 1-.3 0-.4.2-.7 0 .5.4 1 .9 2.2.9.7 0 .2.3-.2.1.4.5 1.3.1 1.9 1 0-.7-1-1.7-.5-2.4-1.7-.1-1.8-1-2.7-1.7-.8-.6-.9-1.2-1.2-2.3-.1-.5-.7-.8-1-.7-.3 0-.5.3-.2.5.2.2.6.2.6.7-.3-.4-.8-.5-1-.3-.1.2 0 .5.2.5.5 0 .2.6.7 1-.5-.5-.9-.6-1.2-.3-.1.2 0 .5.4.5.5 0 1 1.2 1.8 1.5zm13 4.6c-.2 0-.1.5-.5.5.8 0 1.3-.2 1.6-.5l-.2.5c.4-.3 1.5-.4 2-.3s.6-.1.8-.4c.2-.4 0-.6-.3-.8-.3-.3-.4-.7-.3-1.3-1.4-2-4-1-4-.2.9 1.1 1 1 1.8 1.1.7.2 1.2.2.7.6-.2.2-1 0-1.5.1-1.3 0-2-.9-2.3-.4-.3.4 0 .6.6.6-.4 0-1 0-.9.4.2.7.8-.1 1.1.1-.2 0-.6.1-.6.3 0 .2.5.5 1 0a1.6 1.6 0 011-.3z"/>
        </g>
        <path fill="none" stroke-width=".1" d="M123.5 29.2c-.4-.2-.9-.3-1.4-.2m-5.6 0c-.4.8-.2 1.2-.1 1.6m-4-5.6c.2.2.4-.2.8.2-.1-.1-.3.3-.6 0m2-.1c-.3 0-.5-.3-.9.1.1-.1.3.3.6 0m-.6 0v.3c.1.7.3 1-.3 1-.5 0-.3-.3-.2-1v-.3"/>
        <path fill="#ff0016" stroke-width=".1" d="M113.5 27.7c.4 0 .6 0 .6-.6 0-.2.3-.3.1-.7.2.4-.7.4-.7.2 0 .2-1 .2-.8-.2-.1.4.2.5.1.7 0 .6.2.6.7.6z"/>
        <path stroke-width=".1" d="M113 26.5l-1-.3m1 .3h-1m1 .1l-.9.3m1.7-.4l1-.3m-1 .3h1.2m-1.2.1l1 .3"/>
        <path fill="#0051ba" stroke-width="0" d="M108.1 23.4c-.3-.4-1 0-1 .4.2-.3.6.1.9 0 .1 0 .3-.2.1-.4zm-.3.9c-.3-.4-1.1 0-1.1.4.2-.3.6.1.9 0 .1 0 .3-.3.2-.4zm-.2 1.2c-.4-.4-1.1 0-1 .5.2-.3.6 0 .8 0 .2-.1.3-.4.1-.5zm.3 3.7c-.4-.4-1 .1-1 .6.2-.4.7 0 1-.2 0 0 .2-.3 0-.5zm0 .7c-.5-.1-1 .6-.7 1 0-.5.6-.3.8-.5l-.1-.5zm.6.7c-.5-.2-1 .4-.7.8 0-.3.6-.2.7-.4v-.5zm11.7 1.1c-.5-.1-1 .5-.7 1 0-.5.6-.3.8-.5l-.1-.5zm.6.6c-.5-.1-.9.6-.6 1 0-.5.6-.4.7-.6.1-.1.1-.4 0-.4zm-.4-1.4c-.4-.2-1 .4-.9.8.2-.4.7-.1.9-.3V31zm8.3 1c-.4-.1-.8.6-.6 1 0-.4.6-.3.8-.5 0-.2 0-.5-.2-.5zm0-.7c-.4-.3-1 .3-.8.7.2-.3.7-.1.9-.3v-.5zm.4 1.3c-.5 0-.9.7-.6 1 0-.4.6-.3.7-.5.1-.2 0-.4-.1-.5zm-15.6-5.2c.3 0 .4.1.4.7 0 1 0 1.6-.4 1.6-.3 0-.3-.5-.3-1.3 0-.4 0-.7-.1-.6 0-.3.1-.4.4-.4z"/>
      </g>
      <use width="30" height="18" transform="matrix(.9 0 0 .9 11.6 13.7)" xlink:href="#b"/>
      <use width="30" height="18" transform="matrix(.67 0 0 .75 39.2 27.5)" xlink:href="#b"/>
    </g>
  </g>
</svg>
